!! 00000] TT[00
!! NN
!!!OTL: Qiao qing lang
!!!ARE: Asia, China,ÿLiaoning
!! Ethnic Group: Han
!! III, 278
!!!SCT: C0297B
!!!YEM: Copyright 1995, estate of Helmut Schaffrath.
**kern
*ICvox
*Ivox
*M2/4
*k[f#]
*G:
{8.dd
16dd
8gg
8b
=1
4.a
8r
=2
8.g
16a
8dd
8b
=3
4.a
8r}
=4
{8.a
16g
8a
8a
=5
8gg
8ee
4dd
=6
8.ee
16b
8b
8a
=7
4g
8g
8e}
=8
{8dd
16e
16e
8d
8d
=9
8r
8g
8e
8b
=10
4a
8g
8e
=11
8d
8d
16c
16d
8e
=12
2d}
=13
{8r
8a
8e
8g
=14
8a
8g
4a
=15
8r
8dd
8ee
8b
=16
8a
8g
4a}
=17
{8dd
16e
16e
8d
8d
=18
8r
8dd
8b
8gg
=19
4ee
8dd
8b
=20
8a
16a
16b
16a
16g
8e
=21
2dd}
==
!!!AGN: Xiaodiao, Shuai xigua
!! S. 279, 2. Zeile, vorl. Takt: neue Weise; letzte Zeile, vorl.
!!    T.: neue Weise; S. 280 2. Z., letzter T.: neue Weise; unten,
!!    letzte Z.: Variante; S. 281, vor Doppelstr.: Variante; letzte
!!    beiden Zeilen entsprechen einer Coda. - Enthaelt Elemente der
!!    prosaischen Musik.
!!    +++Das Lied wurde  GETEILT!!+++In diesem Dokument ist der Schluss des
!!    Liedes, ab S. 281, 4. Z.) notiert, der erste T. im vorherigen unter
!!    gleicher Signatur, A). Vereinzelt Glissandi.
!!!ONB: ESAC (Essen Associative Code) Database: CHINA
!!!AMT: simple duple
!!!AIN: vox
!!!EED: Helmut Schaffrath
!!!EEV: 1.0
*-
